X: 125
T:Seamus Connolly's
R:jig
D:Kevin Griffin
Z:added by Alf 
M:6/8
L:1/8
Q:3/8=120
K:D 
|DFA dcd|ecA gfg|afd Adf|edB AFE|
DFA def|ecA gfg|afd Adf|edc d2e:|
fdf a2a|bgb a2g|fdf a2a|bgb a2f|
gag fgf|edB g3|afd Adf|edc d3:|
